assets/picture.svg

<svg height="360" viewBox="0 0 640 360" width="640" xmlns="http://www.w3.org/2000/svg" xmlns:xlink="http://www.w3.org/1999/xlink"><defs><path id="a" d="m9.6 0h54.4531716l37.9468284 38.5703187v93.8296813c0 5.301934-4.2980664 9.6-9.6 9.6h-82.8c-5.3019336 0-9.6-4.298066-9.6-9.6v-122.8c0-5.3019336 4.2980664-9.6 9.6-9.6z"/><filter id="b" height="102.8%" width="103.9%" x="-2%" y="-.7%"><feOffset dx="0" dy="1" in="SourceAlpha" result="shadowOffsetOuter1"/><feGaussianBlur in="shadowOffsetOuter1" result="shadowBlurOuter1" stdDeviation=".5"/><feColorMatrix in="shadowBlurOuter1" type="matrix" values="0 0 0 0 0   0 0 0 0 0   0 0 0 0 0  0 0 0 0.2 0"/></filter><linearGradient id="c" x1="50%" x2="50%" y1="0%" y2="100%"><stop offset="0" stop-color="#28865d"/><stop offset="1" stop-color="#22a565"/></linearGradient></defs><g fill="none" fill-rule="evenodd"><path d="m0 0h640v360h-640z" fill="#1d4d35"/><g transform="translate(121 110)"><use fill="#000" filter="url(#b)" xlink:href="#a"/><use fill="#22a565" fill-rule="evenodd" xlink:href="#a"/><path d="m99.6036202 36.1016949 2.3963798 2.4686238v31.6197074l-33.862069-34.0883312z" fill="url(#c)"/><path d="m26 70h50v45h-50zm6 6v7h16v-7zm0 13v7h16v-7zm0 13v7h16v-7zm22-26v7h16v-7zm0 13v7h16v-7zm0 13v7h16v-7z" fill="#fff"/><path d="m64 .00054374 28.4-.00054374c5.3019336 0 9.6 4.2980664 9.6 9.6v.00054376l-.002152 28.39999994z" fill="#8ed0b0" transform="matrix(-1 0 0 -1 166 38.000544)"/></g><g fill="#fff" fill-rule="nonzero" transform="translate(262 122)"><path d="m87.0268519 35.6471111c0 9.6484445-7.511 16.7582222-16.7287038 16.7582222-9.2177037 0-16.7287037-7.1097777-16.7287037-16.7582222 0-9.7164444 7.511-16.7582222 16.7287037-16.7582222 9.2177038 0 16.7287038 7.0417778 16.7287038 16.7582222zm-7.3230371 0c0-6.0293333-4.3532222-10.1546667-9.4056667-10.1546667-5.0524444 0-9.4056666 4.1253334-9.4056666 10.1546667 0 5.9688889 4.3532222 10.1546667 9.4056666 10.1546667 5.0524445 0 9.4056667-4.1933334 9.4056667-10.1546667z"/><path d="m123.115741 35.6471111c0 9.6484445-7.511 16.7582222-16.728704 16.7582222-9.2177037 0-16.7287037-7.1097777-16.7287037-16.7582222 0-9.7088889 7.511-16.7582222 16.7287037-16.7582222 9.217704 0 16.728704 7.0417778 16.728704 16.7582222zm-7.323037 0c0-6.0293333-4.353223-10.1546667-9.405667-10.1546667s-9.4056666 4.1253334-9.4056666 10.1546667c0 5.9688889 4.3532226 10.1546667 9.4056666 10.1546667s9.405667-4.1933334 9.405667-10.1546667z"/><path d="m157.700926 19.9013333v30.0862223c0 12.376-7.262889 17.4306666-15.849037 17.4306666-8.082408 0-12.946889-5.4324444-14.781408-9.8751111l6.375704-2.6671111c1.135296 2.7275556 3.917148 5.9462222 8.398185 5.9462222 5.496037 0 8.901926-3.4075555 8.901926-9.8222222v-2.4102222h-.255629c-1.639037 2.0324444-4.796815 3.808-8.78163 3.808-8.338037 0-15.976852-7.2986667-15.976852-16.6902222 0-9.4595556 7.638815-16.8186667 15.976852-16.8186667 3.977296 0 7.135074 1.7755555 8.78163 3.7475555h.255629v-2.7275555h6.95463zm-6.435852 15.8062223c0-5.9008889-3.917148-10.2151112-8.901926-10.2151112-5.052444 0-9.28537 4.3142223-9.28537 10.2151112 0 5.8404444 4.232926 10.0942222 9.28537 10.0942222 4.984778 0 8.901926-4.2537778 8.901926-10.0942222z"/><path d="m169.166667 2.26666667v49.11111113h-7.142593v-49.11111113z"/><path d="m197.000222 41.1626667 5.684 3.808c-1.834518 2.7275555-6.255407 7.4271111-13.894222 7.4271111-9.473333 0-16.548259-7.3591111-16.548259-16.7582222 0-9.9657778 7.135074-16.7582223 15.72874-16.7582223 8.653815 0 12.886741 6.9208889 14.270149 10.6608889l.75937 1.904-22.292407 9.2782222c1.706703 3.3622223 4.36074 5.0773334 8.082407 5.0773334 3.729185 0 6.315556-1.8435556 8.210222-4.6391111zm-17.495592-6.0293334 14.901703-6.2182222c-.819518-2.0928889-3.285592-3.5511111-6.18774-3.5511111-3.721667 0-8.901926 3.3017778-8.713963 9.7693333z"/><path d="m26.5328519 31.2875556v-7.1097778h23.8412222c.233074 1.2391111.3533703 2.7048889.3533703 4.2915555 0 5.3342223-1.451074 11.9302223-6.1275925 16.6297778-4.5487038 4.76-10.3605186 7.2986667-18.0594815 7.2986667-14.2701482 0-26.26970373-11.6808889-26.26970373-26.0213334 0-14.3404444 11.99955553-26.02133329 26.26970373-26.02133329 7.8944444 0 13.5182963 3.11288889 17.7437037 7.17022222l-4.9922963 5.01688887c-3.029963-2.85599998-7.1350741-5.07733331-12.7589259-5.07733331-10.4206667 0-18.57074079 8.43955551-18.57074079 18.91155551s8.15007409 18.9115556 18.57074079 18.9115556c6.7591481 0 10.6086296-2.7275556 13.0747037-5.2057778 1.9999259-2.0097778 3.3156666-4.8808889 3.8344444-8.8022222z"/></g><text fill="#36825c" font-family="Roboto-Medium, Roboto" font-size="42" font-weight="400"><tspan x="260" y="231">Spreadsheets</tspan></text></g></svg>

<?xml version="1.0" encoding="UTF-8"?>
<svg width="640px" height="360px" viewBox="0 0 640 360" version="1.1" xmlns="http://www.w3.org/2000/svg" xmlns:xlink="http://www.w3.org/1999/xlink">
    <!-- Generator: Sketch 52.6 (67491) - http://www.bohemiancoding.com/sketch -->
    <title>google-sheets/picture</title>
    <desc>Created with Sketch.</desc>
    <defs>
        <path d="M9.6,0 L64.0531716,0 L102,38.5703187 L102,132.4 C102,137.701934 97.7019336,142 92.4,142 L9.6,142 C4.2980664,142 1.8907377e-14,137.701934 1.77635684e-15,132.4 L0,9.6 C-6.49299601e-16,4.2980664 4.2980664,2.75030624e-15 9.6,1.77635684e-15 Z" id="path-1"></path>
        <filter x="-2.0%" y="-0.7%" width="103.9%" height="102.8%" filterUnits="objectBoundingBox" id="filter-2">
            <feOffset dx="0" dy="1" in="SourceAlpha" result="shadowOffsetOuter1"></feOffset>
            <feGaussianBlur stdDeviation="0.5" in="shadowOffsetOuter1" result="shadowBlurOuter1"></feGaussianBlur>
            <feColorMatrix values="0 0 0 0 0   0 0 0 0 0   0 0 0 0 0  0 0 0 0.2 0" type="matrix" in="shadowBlurOuter1"></feColorMatrix>
        </filter>
        <linearGradient x1="50%" y1="0%" x2="50%" y2="100%" id="linearGradient-3">
            <stop stop-color="#28865D" offset="0%"></stop>
            <stop stop-color="#22A565" offset="100%"></stop>
        </linearGradient>
    </defs>
    <g id="google-sheets/picture" stroke="none" stroke-width="1" fill="none" fill-rule="evenodd">
        <rect id="Rectangle" fill="#1D4D35" x="0" y="0" width="640" height="360"></rect>
        <g id="Group" transform="translate(121.000000, 110.000000)">
            <g id="Rectangle-2">
                <use fill="black" fill-opacity="1" filter="url(#filter-2)" xlink:href="#path-1"></use>
                <use fill="#22A565" fill-rule="evenodd" xlink:href="#path-1"></use>
            </g>
            <path d="M99.6036202,36.1016949 L102,38.5703187 L102,70.1900261 L68.137931,36.1016949 L99.6036202,36.1016949 Z" id="Combined-Shape" fill="url(#linearGradient-3)"></path>
            <path d="M26,70 L76,70 L76,115 L26,115 L26,70 Z M32,76 L32,83 L48,83 L48,76 L32,76 Z M32,89 L32,96 L48,96 L48,89 L32,89 Z M32,102 L32,109 L48,109 L48,102 L32,102 Z M54,76 L54,83 L70,83 L70,76 L54,76 Z M54,89 L54,96 L70,96 L70,89 L54,89 Z M54,102 L54,109 L70,109 L70,102 L54,102 Z" id="Combined-Shape" fill="#FFFFFF"></path>
            <path d="M64,0.000543740272 L92.4,-2.23820962e-13 C97.7019336,-2.24794911e-13 102,4.2980664 102,9.6 C102,9.60018125 102,9.6003625 102,9.60054376 L101.997848,38.0005437 L64,0.000543740272 Z" id="Rectangle-2" fill="#8ED0B0" transform="translate(83.000000, 19.000272) scale(-1, -1) translate(-83.000000, -19.000272) "></path>
        </g>
        <g id="Google_2015_logo" transform="translate(262.000000, 122.000000)" fill="#FFFFFF" fill-rule="nonzero">
            <path d="M87.0268519,35.6471111 C87.0268519,45.2955556 79.5158519,52.4053333 70.2981481,52.4053333 C61.0804444,52.4053333 53.5694444,45.2955556 53.5694444,35.6471111 C53.5694444,25.9306667 61.0804444,18.8888889 70.2981481,18.8888889 C79.5158519,18.8888889 87.0268519,25.9306667 87.0268519,35.6471111 Z M79.7038148,35.6471111 C79.7038148,29.6177778 75.3505926,25.4924444 70.2981481,25.4924444 C65.2457037,25.4924444 60.8924815,29.6177778 60.8924815,35.6471111 C60.8924815,41.616 65.2457037,45.8017778 70.2981481,45.8017778 C75.3505926,45.8017778 79.7038148,41.6084444 79.7038148,35.6471111 Z" id="Shape"></path>
            <path d="M123.115741,35.6471111 C123.115741,45.2955556 115.604741,52.4053333 106.387037,52.4053333 C97.1693333,52.4053333 89.6583333,45.2955556 89.6583333,35.6471111 C89.6583333,25.9382222 97.1693333,18.8888889 106.387037,18.8888889 C115.604741,18.8888889 123.115741,25.9306667 123.115741,35.6471111 Z M115.792704,35.6471111 C115.792704,29.6177778 111.439481,25.4924444 106.387037,25.4924444 C101.334593,25.4924444 96.9813704,29.6177778 96.9813704,35.6471111 C96.9813704,41.616 101.334593,45.8017778 106.387037,45.8017778 C111.439481,45.8017778 115.792704,41.6084444 115.792704,35.6471111 Z" id="Shape"></path>
            <path d="M157.700926,19.9013333 L157.700926,49.9875556 C157.700926,62.3635556 150.438037,67.4182222 141.851889,67.4182222 C133.769481,67.4182222 128.905,61.9857778 127.070481,57.5431111 L133.446185,54.876 C134.581481,57.6035556 137.363333,60.8222222 141.84437,60.8222222 C147.340407,60.8222222 150.746296,57.4146667 150.746296,51 L150.746296,48.5897778 L150.490667,48.5897778 C148.85163,50.6222222 145.693852,52.3977778 141.709037,52.3977778 C133.371,52.3977778 125.732185,45.0991111 125.732185,35.7075556 C125.732185,26.248 133.371,18.8888889 141.709037,18.8888889 C145.686333,18.8888889 148.844111,20.6644444 150.490667,22.6364444 L150.746296,22.6364444 L150.746296,19.9088889 L157.700926,19.9088889 L157.700926,19.9013333 Z M151.265074,35.7075556 C151.265074,29.8066667 147.347926,25.4924444 142.363148,25.4924444 C137.310704,25.4924444 133.077778,29.8066667 133.077778,35.7075556 C133.077778,41.548 137.310704,45.8017778 142.363148,45.8017778 C147.347926,45.8017778 151.265074,41.548 151.265074,35.7075556 Z" id="Shape"></path>
            <polygon id="Shape" points="169.166667 2.26666667 169.166667 51.3777778 162.024074 51.3777778 162.024074 2.26666667"></polygon>
            <path d="M197.000222,41.1626667 L202.684222,44.9706667 C200.849704,47.6982222 196.428815,52.3977778 188.79,52.3977778 C179.316667,52.3977778 172.241741,45.0386667 172.241741,35.6395556 C172.241741,25.6737778 179.376815,18.8813333 187.970481,18.8813333 C196.624296,18.8813333 200.857222,25.8022222 202.24063,29.5422222 L203,31.4462222 L180.707593,40.7244444 C182.414296,44.0866667 185.068333,45.8017778 188.79,45.8017778 C192.519185,45.8017778 195.105556,43.9582222 197.000222,41.1626667 Z M179.50463,35.1333333 L194.406333,28.9151111 C193.586815,26.8222222 191.120741,25.364 188.218593,25.364 C184.496926,25.364 179.316667,28.6657778 179.50463,35.1333333 Z" id="Shape"></path>
            <path d="M26.5328519,31.2875556 L26.5328519,24.1777778 L50.3740741,24.1777778 C50.6071481,25.4168889 50.7274444,26.8826667 50.7274444,28.4693333 C50.7274444,33.8035556 49.2763704,40.3995556 44.5998519,45.0991111 C40.0511481,49.8591111 34.2393333,52.3977778 26.5403704,52.3977778 C12.2702222,52.3977778 0.270666667,40.7168889 0.270666667,26.3764444 C0.270666667,12.036 12.2702222,0.355111111 26.5403704,0.355111111 C34.4348148,0.355111111 40.0586667,3.468 44.2840741,7.52533333 L39.2917778,12.5422222 C36.2618148,9.68622222 32.1567037,7.46488889 26.5328519,7.46488889 C16.1121852,7.46488889 7.96211111,15.9044444 7.96211111,26.3764444 C7.96211111,36.8484444 16.1121852,45.288 26.5328519,45.288 C33.292,45.288 37.1414815,42.5604444 39.6075556,40.0822222 C41.6074815,38.0724444 42.9232222,35.2013333 43.442,31.28 L26.5328519,31.2875556 Z" id="Shape"></path>
        </g>
        <text id="Spreadsheets" font-family="Roboto-Medium, Roboto" font-size="42" font-weight="400" fill="#36825C">
            <tspan x="260" y="231">Spreadsheets</tspan>
        </text>
    </g>
</svg>
